X: 17
T: Swing, Cradle, Swing
C: George Cooper
Q: "Smoothly."
%R: air, jig
B: "The Everyday Song Book", 1927
F: http://www.library.pitt.edu/happybirthday/pdf/The_Everyday_Song_Book.pdf
Z: 2017 John Chambers <jc:trillian.mit.edu>
M: 6/8
L: 1/8
K: D
% - - - - - - - - - - - - - - -
[| F2 F F2 F | F2 E D3 | (E2 F) G2 A | F3- F2z |
w: 1.~Ba-by is a sail-or boy,             Swing,* cra-dle, swing.*
w: 2.~Snow-y sails and pre-cious freight, Swing,* cra-dle, swing.*
w: 3.~Nev-er fear, the watch is set,      Swing,* cra-dle, swing.*
w: 4.~Lit-tle eye-lids down-ward creep,   Swing,* cra-dle, swing.*
%
[| F2 F F2 F | F2 E D3 | E3 F2 E | D3- D2z |
w: Sail-ing is the sail-or's joy,    Swing, cra-dle, swing.*
w: Ba-by's cap-tain, moth-er's mate, Swing, cra-dle, swing.*
w: Storm-y gales are nev-er met,     Swing, cra-dle, swing.*
w: Now he's in the cove of sleep,    Swing, cra-dle, swing.*
%
(A2 B) F2 G | (A2 B) F2 G | A3 F2 D | E3- E2z |
w: Swing,* cra-dle, Swing,* cra-dle, Swing, cra-dle, swing.*
%
(A2 B) F2 G | (A2 B) F2 G | A3 F2 E | D3- D2z |
w: Swing,* cra-dle, Swing,* cra-dle, Swing, cra-dle, swing.*
% - - - - - - - - - - - - - - -
